source/assets/images/icons/edition-medium.svg

<?xml version="1.0" encoding="UTF-8" standalone="no"?>
<svg width="22px" height="16px" viewBox="0 0 22 16" version="1.1" xmlns="http://www.w3.org/2000/svg" xmlns:xlink="http://www.w3.org/1999/xlink" xmlns:sketch="http://www.bohemiancoding.com/sketch/ns">
    <!-- Generator: Sketch 3.2.2 (9983) - http://www.bohemiancoding.com/sketch -->
    <title>edition-medium</title>
    <desc>Created with Sketch.</desc>
    <defs></defs>
    <g id="assets/icons" stroke="none" stroke-width="1" fill="none" fill-rule="evenodd" sketch:type="MSPage">
        <path d="M22,0 L16.2380952,0 L10.8253968,12.2742857 L10.7755102,12.2742857 L5.63718821,0 L0,0 L0,1.76 C0.997732426,1.87428571 1.69614512,1.92 2.12018141,1.94285714 L2.12018141,14.08 C1.47165533,14.1028571 0.798185941,14.1714286 0.0498866213,14.24 L0.0498866213,16 L6.51020408,16 L6.51020408,14.24 C5.861678,14.1714286 5.28798186,14.1257143 4.6893424,14.08 L4.6893424,3.04 L9.8276644,16 L11.6485261,16 L17.2358277,3.04 L17.2358277,14.1028571 C16.6870748,14.1257143 16.138322,14.1714286 15.5396825,14.24 L15.5396825,16 L21.9501134,16 L21.9501134,14.24 C21.2267574,14.1714286 20.553288,14.1028571 19.8548753,14.08 L19.8548753,1.94285714 C20.3287982,1.92 21.0272109,1.85142857 22,1.76 L22,0 Z" id="edition-medium" fill="#474747" sketch:type="MSShapeGroup"></path>
    </g>
</svg>

<svg width="22" height="16" viewBox="0 0 22 16" xmlns="http://www.w3.org/2000/svg"><title>edition-medium</title><path d="M22 0h-5.762l-5.413 12.274h-.05L5.638 0H0v1.76c.998.114 1.696.16 2.12.183V14.08c-.648.023-1.322.09-2.07.16V16h6.46v-1.76c-.648-.07-1.222-.114-1.82-.16V3.04L9.827 16h1.82l5.588-12.96v11.063c-.55.023-1.098.068-1.696.137V16h6.41v-1.76c-.723-.07-1.397-.137-2.095-.16V1.943C20.33 1.92 21.027 1.85 22 1.76V0z" fill="#474747" fill-rule="evenodd"/></svg>
